X: 27250
T: Miss Shepherd
R: reel
M: 4/4
K: Adorian
|:A,B,CD E2 DC|B,GFG DB,G,B,|A,B,CD EGAc|BAGB BcA2:|
a2 ed cBAF|G2 D CB,A,G, ^g|a2 ed cBAc|BAGB Bc A2|
a2 ed cBAF|G2 DC B,A,G,B,|A,B,CD EGAc|BAGB BcA2||

